X:7595
T:Tom is Gone to the Fair
O:england
B:Joyce, P. W.; "Old Irish Folk Music and Songs"
R:hornpipe
H:From meory, as I heard it played in early days.
L:1/8
M:C
K:G
B3/2A/|G2 DG BGBd|c3/2B/AB cdef|g3/2f/gd ecBG|EcBA GFED|
G2 DG BGBd|c3/2B/AB cdef|g3/2f/ec BGDE|E2 G2 G2:|
|:Bd|e2 dB GBdg|fdcA GFED|EA A2 B3/2A/GE|EcBA GFED|
G3/2F/GA BABd|cBcd edef|g3/2f/ec BGED|E2 G2 G2:|
